icons/Instagramicons.svg

<svg width="16" height="16" viewBox="0 0 16 16" fill="currentColor" xmlns="http://www.w3.org/2000/svg">
<g clip-path="url(#clip0_4_1894)">
<path d="M14.0046 3.04651C14.0046 2.46675 13.5327 1.99522 12.9529 1.99522C12.3732 1.99522 11.902 2.46675 11.902 3.04651C11.902 3.62626 12.3732 4.09779 12.9529 4.09779C13.5327 4.09779 14.0046 3.62626 14.0046 3.04651ZM12.4365 3.04651C12.4365 2.7615 12.6683 2.52974 12.9529 2.52974C13.2383 2.52974 13.4701 2.7615 13.4701 3.04651C13.4701 3.33152 13.2383 3.56328 12.9529 3.56328C12.6683 3.56328 12.4365 3.33152 12.4365 3.04651Z" fill="#3D3D3D"/>
<path d="M12.2939 7.96401C12.2939 5.65543 10.4154 3.77696 8.10682 3.77696C5.79823 3.77696 3.91977 5.65543 3.91977 7.96401C3.91977 10.2729 5.79823 12.1514 8.10682 12.1514C10.4154 12.1514 12.2939 10.2729 12.2939 7.96401ZM4.45429 7.96401C4.45429 5.94983 6.09263 4.31148 8.10682 4.31148C10.121 4.31148 11.7593 5.94983 11.7593 7.96401C11.7593 9.97854 10.121 11.6169 8.10682 11.6169C6.09263 11.6169 4.45429 9.97854 4.45429 7.96401Z" fill="#3D3D3D"/>
<path d="M11.5993 0H4.40071C1.97416 0 0 1.97416 0 4.40071V11.5989C0 13.6702 1.43338 15.4477 3.48549 15.9217C3.62747 15.9565 3.77259 15.8653 3.80599 15.7213C3.8394 15.5779 3.74962 15.4345 3.6059 15.4011C1.79738 14.9835 0.534517 13.4196 0.534517 11.5989V4.40071C0.534517 2.26891 2.26891 0.534517 4.40071 0.534517H11.5993C13.7311 0.534517 15.4655 2.26891 15.4655 4.40071V11.5989C15.4655 13.7307 13.7311 15.4651 11.5993 15.4651H5.7551C5.60755 15.4651 5.48784 15.5848 5.48784 15.7324C5.48784 15.8799 5.60755 15.9997 5.7551 15.9997H11.5993C14.0262 15.9997 16 14.0258 16 11.5989V4.40071C16 1.97416 14.0262 0 11.5993 0Z" fill="#3D3D3D"/>
</g>
<defs>
<clipPath id="clip0_4_1894">
<rect width="16" height="16" fill="white"/>
</clipPath>
</defs>
</svg>

<svg xmlns="http://www.w3.org/2000/svg" width="16" height="16" fill="currentColor" class="si si-Instagramicons" viewBox="0 0 16 16">
  <g clip-path="url(#a)">
    <path d="M14.005 3.047a1.052 1.052 0 1 0-1.052 1.051c.58 0 1.052-.472 1.052-1.051m-1.569 0a.517.517 0 1 1 1.035 0 .517.517 0 0 1-1.034 0m-.143 4.917a4.19 4.19 0 0 0-4.187-4.187A4.19 4.19 0 0 0 3.92 7.964a4.19 4.19 0 0 0 4.187 4.187 4.19 4.19 0 0 0 4.187-4.187m-7.84 0a3.656 3.656 0 0 1 3.653-3.653 3.656 3.656 0 0 1 3.652 3.653 3.656 3.656 0 0 1-3.652 3.653 3.657 3.657 0 0 1-3.653-3.653"/>
    <path d="M11.6 0H4.4A4.406 4.406 0 0 0 0 4.4v7.2c0 2.071 1.433 3.849 3.485 4.323a.267.267 0 1 0 .12-.52C1.797 14.985.535 13.421.535 11.6V4.4A3.87 3.87 0 0 1 4.4.535h7.198A3.87 3.87 0 0 1 15.466 4.4v7.198a3.87 3.87 0 0 1-3.867 3.866H5.755a.267.267 0 0 0 0 .535H11.6a4.404 4.404 0 0 0 4.4-4.4V4.4C16 1.974 14.026 0 11.6 0"/>
  </g>
  <defs>
    <clipPath id="a">
      <path d="M0 0h16v16H0z"/>
    </clipPath>
  </defs>
</svg>
